!!!SOCIAL_FUNCTION:	songs of war
!!!PDT:	1913
!!!OTL: No_37_Gift_Song.krn
!!!REG: Great_Lakes
!!!LANG: Non-Tone
!!!LING_GROUP: Algonquin
**kern
*staff1
=1-
*clefF4
*k[]
*M2/4
8A\L
8A\J
4c\
=2
4.A\
8A\
=3
4A\
4F\
=4
8A\L
8A\J
4c\
=5
4.A\
8F\
=6
2E\
=7
8A\L
8A\J
4c\
=8
4.A\
8F\
=9
4E\
4C/
=10
8E\L
8E\J
4F\
=11
4.E\
8C/
=12
4AA/
4C/
=13
[2AA/
=14
4.AA/]
8A\
=15
8.A\L
16A\Jk
8.A\L
16A\Jk
=16
8c\L
8A\J
12A\L
12A\
12A\J
=17
4A\
4F\
=18
8A\L
8A\J
4c\
=19
4.A\
8F\
=20
2E\
=21
8A\L
8A\J
4c\
=22
4.A\
8F\
=23
4E\
4C/
=24
8E\L
8E\J
4F\
=25
4.E\
8C/
=26
4AA/
4C/
=27
2AA/
==
*-
